!! 00000] TT[WS
!!!OTL: Dui hua
!!!ARE: Asia, China, Shanxi Qinyuan
!! Ethnic Group: Han
!! WII, 168 (2)
!!!SCT: J0653
!!!YEM: Copyright 1995, estate of Helmut Schaffrath.
**kern
*ICvox
*Ivox
*M4/4
*k[f#]
*G:
{8dd
8ee
8dd
8a
8dd
8ee
8dd
8dd
=1
8.a
16a
8.a
16cc
4.dd
8ee}
=2
{4cc
8cc
8dd
8a
8b
8a
8g
=3
4f#
8g
8a
2d}
=4
{8.a
16b
8a
8g
2f#
=5
8.a
16f#
8g
8a
2d}
=6
{8.a
16b
8a
8g
2f#
=7
8.a
16f#
8g
8a
2d}
=8
{8dd
8ee
8dd
8a
8dd
8ee
8dd
8dd
=9
8.a
16a
8a
8b
4.dd
8ee}
=10
{4cc
8.cc
16dd
8a
8b
8a
8g
=11
8f#
8f#
8g
8a
2d}
==
!!!AGN: Xiaodiao, Duihua. Fengsu
!!!ONB: ESAC (Essen Associative Code) Database: CHINA
!!!AMT: simple quadruple
!!!AIN: vox
!!!EED: Helmut Schaffrath
!!!EEV: 1.0
*-
